offer/images/number3.svg

<svg height="66" viewBox="0 0 66 66" width="66" xmlns="http://www.w3.org/2000/svg"><g fill="none" fill-rule="evenodd"><g transform="matrix(-1 0 0 1 66 0)"><path d="m65.7661995 33.1263787c0-18.1441865-14.7079505-32.85340076-32.852137-32.85340076-8.0225184 0-15.3727022 2.87637868-21.0774355 7.65349265l-7.700253-2.47070321v11.81261502c-2.59581785 4.7012867-4.07571224 10.1065026-4.07571224 15.8579963 0 18.1441865 14.70921424 32.852137 32.85340074 32.852137 18.1429228 0 32.852137-14.7079505 32.852137-32.852137z" fill="#ffdb2d"/><path d="m65.7649358 33.1263787c0 18.1454502-14.7066868 32.852137-32.8508733 32.852137v-65.70680146c18.1441865 0 32.8508733 14.71047796 32.8508733 32.85466446z" fill="#ffec97"/></g><path d="m40.1231509 32.941212c1.0151255.1884576 1.9479437.5253964 2.7996469 1.0108172.8517036.4865626 1.5793492 1.0987636 2.1853231 1.8343186.6059738.736697 1.0723829 1.5841844 1.40042 2.5401773.326844.955993.4914591 1.9828004.4914591 3.0792798 0 1.4745365-.31253 2.798307-.9340109 3.974738-.6226738 1.1752888-1.5149348 2.1781108-2.6767822 3.0096077-1.1618473.8303548-2.5622673 1.4733941-4.1988739 1.9279763-1.6377993.454582-3.471228.6818731-5.5002863.6818731-4.9778127 0-8.8736998-1.3957268-11.6900467-4.1848965l4.2239242-5.3613275c.8839106.8783257 1.8906861 1.5442086 3.0203261 1.9987905 1.1296403.454582 2.4811528.6818731 4.0521521.6818731 3.7002575 0 5.5503864-1.300927 5.5503864-3.9027814 0-1.4117173-.5487165-2.4773582-1.6449567-3.1992072-1.0986257-.7207068-2.824697-1.0816313-5.1817921-1.0816313h-1.4731842v-5.4070141h1.6199063c1.8334287 0 3.2660561-.3609248 4.2978815-1.0816314 1.0318255-.7207069 1.5471419-1.6766998 1.5471419-2.8691212 0-1.0348026-.3769444-1.8171863-1.1296403-2.35172-.7538888-.5322493-1.7523141-.7983742-2.9964692-.7983742-1.3431623 0-2.5622673.3049584-3.6585075.9160174-1.097433.6110589-2.0219007 1.4813893-2.7757894 2.6098494l-4.95992-5.4549852c.5236665-.6578877 1.2107549-1.2700887 2.0624585-1.8331765.8505104-.5642302 1.8179212-1.0427976 2.8974615-1.4345606 1.0807327-.3917631 2.2425804-.6978636 3.4879282-.9171595 1.2441547-.2192959 2.5205171-.3289438 3.8302793-.3289438 1.7356142 0 3.3233135.1964526 4.7642906.5870735 1.4409772.3929051 2.6684321.957135 3.6835576 1.6938321 1.0151256.7366973 1.8012213 1.615023 2.3582879 2.6326927.5558738 1.0199546.8338106 2.1564096.8338106 3.409366 0 .9411449-.1550719 1.8343186-.4664091 2.6806639-.3113369.8474871-.7443458 1.6150227-1.3014121 2.304891-.5570666.6898683-1.2202978 1.2620935-1.9885009 1.7166757-.7693958.4534399-1.6139424.7595404-2.5300603.9160171z" fill="#57555c"/><path d="m45.5159448 38.3291003c-.3238812-.9571993-.785559-1.8024593-1.3838558-2.5392059-.5971191-.7367465-1.3167239-1.3478465-2.1576372-1.8367264-.842091-.4854532-1.7619134-.8201302-2.7630004-1.0086005.9033337-.155345 1.7360028-.4637505 2.4956512-.9172208.7596487-.455755 1.4144774-1.0280185 1.9656642-1.7190754.5488312-.6864881.9763544-1.4563597 1.2837469-2.3027615.3062149-.84526.4605002-1.7407784.4605002-2.6819865 0-1.2518981-.2755933-2.3895717-.823247-3.4073101-.5488312-1.0200228-1.3261459-1.89955-2.3272332-2.6351543-1.0034427-.7367466-2.2165246-1.3021569-3.6368907-1.6916616-1.4238992-.3929315-2.9903063-.5893973-4.7039317-.5893973-.3085705 0-.6183184.0057111-.9257113.0217027v6.4228312h.0506433c1.2295706 0 2.2141692.267285 2.9596846.7984278.7431601.532285 1.1141513 1.3158638 1.1141513 2.3518781 0 1.1925015-.5087878 2.1474165-1.5275412 2.8681715-.686628.4854534-1.5499187.8098504-2.596938.9651954v5.6095547c1.4344991.1416378 2.5427614.475173 3.3259648.99832 1.0823519.7207553 1.6229391 1.78761 1.6229391 3.19828 0 2.4740981-1.6488494 3.7728281-4.9489039 3.8927636v6.872875c1.9468203-.0079958 3.711089-.2341597 5.2892734-.6796343 1.6170501-.4523284 2.9985506-1.0965531 4.1468562-1.9258215 1.1471283-.832695 2.0280849-1.8355843 2.6405147-3.0120943.6159628-1.1753678.9233557-2.4992273.9233557-3.9727207 0-1.0965531-.1637073-2.1245717-.4840552-3.0806289z" fill="#171719"/></g></svg>

<?xml version="1.0" encoding="UTF-8"?>
<svg width="66px" height="66px" viewBox="0 0 66 66" version="1.1" xmlns="http://www.w3.org/2000/svg" xmlns:xlink="http://www.w3.org/1999/xlink">
    <!-- Generator: Sketch 52.2 (67145) - http://www.bohemiancoding.com/sketch -->
    <title>Group Copy 14</title>
    <desc>Created with Sketch.</desc>
    <g id="Page-1" stroke="none" stroke-width="1" fill="none" fill-rule="evenodd">
        <g id="offer" transform="translate(-150.000000, -14073.000000)">
            <g id="Group-Copy-14" transform="translate(150.000000, 14073.000000)">
                <g id="Group-2" transform="translate(33.000000, 33.000000) scale(-1, 1) translate(-33.000000, -33.000000) ">
                    <path d="M65.7661995,33.1263787 C65.7661995,14.9821922 51.058249,0.272977941 32.9140625,0.272977941 C24.8915441,0.272977941 17.5413603,3.14935662 11.836627,7.92647059 L4.136374,5.45576738 L4.136374,17.2683824 C1.54055615,21.9696691 0.0606617647,27.374885 0.0606617647,33.1263787 C0.0606617647,51.2705652 14.769876,65.9785157 32.9140625,65.9785157 C51.0569853,65.9785157 65.7661995,51.2705652 65.7661995,33.1263787 Z" id="Path" fill="#FFDB2D"></path>
                    <path d="M65.7649358,33.1263787 C65.7649358,51.2718289 51.058249,65.9785157 32.9140625,65.9785157 L32.9140625,0.271714235 C51.058249,0.271714235 65.7649358,14.9821922 65.7649358,33.1263787 Z" id="Path" fill="#FFEC97"></path>
                </g>
                <path d="M40.1231509,32.941212 C41.1382764,33.1296696 42.0710946,33.4666084 42.9227978,33.9520292 C43.7745014,34.4385918 44.502147,35.0507928 45.1081209,35.7863478 C45.7140947,36.5230448 46.1805038,37.3705322 46.5085409,38.3265251 C46.8353849,39.2825181 47,40.3093255 47,41.4058049 C47,42.8803414 46.68747,44.2041119 46.0659891,45.3805429 C45.4433153,46.5558317 44.5510543,47.5586537 43.3892069,48.3901506 C42.2273596,49.2205054 40.8269396,49.8635447 39.190333,50.3181269 C37.5525337,50.7727089 35.719105,51 33.6900467,51 C28.712234,51 24.8163469,49.6042732 22,46.8151035 L26.2239242,41.453776 C27.1078348,42.3321017 28.1146103,42.9979846 29.2442503,43.4525665 C30.3738906,43.9071485 31.7254031,44.1344396 33.2964024,44.1344396 C36.9966599,44.1344396 38.8467888,42.8335126 38.8467888,40.2316582 C38.8467888,38.8199409 38.2980723,37.7543 37.2018321,37.032451 C36.1032064,36.3117442 34.3771351,35.9508197 32.02004,35.9508197 L30.5468558,35.9508197 L30.5468558,30.5438056 L32.1667621,30.5438056 C34.0001908,30.5438056 35.4328182,30.1828808 36.4646436,29.4621742 C37.4964691,28.7414673 38.0117855,27.7854744 38.0117855,26.593053 C38.0117855,25.5582504 37.6348411,24.7758667 36.8821452,24.241333 C36.1282564,23.7090837 35.1298311,23.4429588 33.885676,23.4429588 C32.5425137,23.4429588 31.3234087,23.7479172 30.2271685,24.3589762 C29.1297355,24.9700351 28.2052678,25.8403655 27.4513791,26.9688256 L22.4914591,21.5138404 C23.0151256,20.8559527 23.702214,20.2437517 24.5539176,19.6806639 C25.404428,19.1164337 26.3718388,18.6378663 27.4513791,18.2461033 C28.5321118,17.8543402 29.6939595,17.5482397 30.9393073,17.3289438 C32.183462,17.1096479 33.4598244,17 34.7695866,17 C36.5052008,17 38.0929001,17.1964526 39.5338772,17.5870735 C40.9748544,17.9799786 42.2023093,18.5442085 43.2174348,19.2809056 C44.2325604,20.0176029 45.0186561,20.8959286 45.5757227,21.9135983 C46.1315965,22.9335529 46.4095333,24.0700079 46.4095333,25.3229643 C46.4095333,26.2641092 46.2544614,27.1572829 45.9431242,28.0036282 C45.6317873,28.8511153 45.1987784,29.6186509 44.6417121,30.3085192 C44.0846455,30.9983875 43.4214143,31.5706127 42.6532112,32.0251949 C41.8838154,32.4786348 41.0392688,32.7847353 40.1231509,32.941212 Z" id="Path-Copy" fill="#57555C"></path>
                <path d="M45.5159448,38.3291003 C45.1920636,37.371901 44.7303858,36.526641 44.132089,35.7898944 C43.5349699,35.0531479 42.8153651,34.4420479 41.9744518,33.953168 C41.1323608,33.4677148 40.2125384,33.1330378 39.2114514,32.9445675 C40.1147851,32.7892225 40.9474542,32.480817 41.7071026,32.0273467 C42.4667513,31.5715917 43.12158,30.9993282 43.6727668,30.3082713 C44.221598,29.6217832 44.6491212,28.8519116 44.9565137,28.0055098 C45.2627286,27.1602498 45.4170139,26.2647314 45.4170139,25.3235233 C45.4170139,24.0716252 45.1414206,22.9339516 44.5937669,21.9162132 C44.0449357,20.8961904 43.267621,20.0166632 42.2665337,19.2810589 C41.263091,18.5443123 40.0500091,17.978902 38.629643,17.5893973 C37.2057438,17.1964658 35.6393367,17 33.9257113,17 C33.6171408,17 33.3073929,17.0057111 33,17.0217027 L33,23.4445339 L33.0506433,23.4445339 C34.2802139,23.4445339 35.2648125,23.7118189 36.0103279,24.2429617 C36.753488,24.7752467 37.1244792,25.5588255 37.1244792,26.5948398 C37.1244792,27.7873413 36.6156914,28.7422563 35.596938,29.4630113 C34.91031,29.9484647 34.0470193,30.2728617 33,30.4282067 L33,36.0377614 C34.4344991,36.1793992 35.5427614,36.5129344 36.3259648,37.0360814 C37.4083167,37.7568367 37.9489039,38.8236914 37.9489039,40.2343614 C37.9489039,42.7084595 36.3000545,44.0071895 33,44.127125 L33,51 C34.9468203,50.9920042 36.711089,50.7658403 38.2892734,50.3203657 C39.9063235,49.8680373 41.287824,49.2238126 42.4361296,48.3945442 C43.5832579,47.5618492 44.4642145,46.5589599 45.0766443,45.3824499 C45.6926071,44.2070821 46,42.8832226 46,41.4097292 C46,40.3131761 45.8362927,39.2851575 45.5159448,38.3291003 Z" id="Path-Copy-2" fill="#171719"></path>
            </g>
        </g>
    </g>
</svg>
